X:663
T:Planxty Kitty O'Brien
C:O'Carolan
B:O'Neill's 663
Z: 1997 by John Chambers <jc@trillian.mit.edu>
N:"Moderate"
M:C
L:1/8
K:G
B2d2 d2g2|e2dc B2A2|G2G2 A2G2|F3E D2z2|
|BBd2 d2g2|fefg a2e2|edcB dcBAG|G4 G2z2||
||D2DD D2GG|E2EE E2EG|ABAG BAGAB|d4 d2z2|
|efed B2d2|efed cBAG|g2G2 GABG|A4 G2z2||
||B2d2 d2ef|g4 [g4B4]|efed B2d2|e2f2 g2z2|
|d2BA G2d2|G2AB d2D2|E2 FG ABAG|G4 G2z2|]
